X:192
T: Brautlied (2-96) S. 279
N: P0967
O: Lothringen
S: PINCK, Louis: Verklingende Weisen, Bd 2, Metz 1928]
R: ???, Brautlied]
M: 4/4
L: 1/8
K: G
D2 | G2DDG2BB | d2cBA2
A2 | AAAAA2AB | G2FED2
DD | G2DDG2AB | ddcBA2z2 |
ddBAGGBB | A2D2G2

